X:1
T:James Gibb editions
T:D'improvviso - Caldara
T:#
%%score 1 { ( 2 3 ) | 4 }
L:1/8
Q:1/4=60
M:4/4
K:F
V:1 treble nm="Alto"
V:2 treble nm="Midi_7"
V:3 treble 
V:4 bass 
V:1
"^D'improvviso""^Aria larghetto""^Antonio Caldara\n(1670 -1736)" z8 | z8 | z8 | z8 | %4
w: ||||
 z2 (GA/)^F/ (GD/>)G/ (AF/)D/ | BA z B/>^F/ G (_E/>D/) C (c/A/) | %6
w: D'im\- * prov- vi\- * so~a- mor * fe-|ri- sce al gi- rar d'un * va- go *|
 (^F/=E/)D z D/_E/ (=F2- F/_A/G/F/ | _ED/C/ _A2- A/F/E/D/ BTA/G/4A/4 | %8
w: ci\- * glio e la pia\- * * * *||
 G/_E/G/_A/ B2- B/G/=E/C/ _D/B/A/G/ | _A) (G/F/) =E>F F2 z2 | B (F/G/) _A2- A/F/D/B,/ B>A | %11
w: |* ga * sen- te~il cor,|al gi\- * rar * d'un va- go, va- go|
 (G/F/)G z G/_E/ Cc/A/ ^F>G | AD z2 z2 G (TB3/4A/8B/8) | (c/A/^F/A/ B2- B/G/_E/C/ _A/B/G/F/ | %14
w: ci\- * glio d'im- prov- vi- so a- mor fe-|ri- sce e la * *|pia\- * * * * * * * * * * * *|
 C2- C/A/G/^F/ d/B/G/)c/ (BA/)G/ | _E3 G/E/ (^C2- C/B/A/G/ | ^F/A/d/)G/ (BA/)G/ G4 | z8 | %18
w: * * * * * * * * ga sen\- * to~il|cor, e la pia\- * * * *|* * * ga sen\- * te~il cor.||
 z4 !fermata!z2!fine! || (Bc/)A/ | BF z/ G/F/_E/ (D/E/)F (_AG/)F/ | _E2 z/ E/D/C/ _A2- A/F/E/D/ | %22
w: |Par * di-|let to e pur sva- ni\- * sce il * pia-|cer quan- do~il pe- ri\- * glio si di-|
 =B (c/F/) (_ED/)C/ (C2 =EC/E/ | F/C/_A- A/c/B/4A/4G/4A/4 G2) z/ G/c/B/ | %24
w: scuo- pre * nel * do- lor, * * *|* * * * * * * * * * quan- do~il pe-|
 !courtesy!=AcFA (B/F/D/B,/ _ED/C/ | D/F/A/)B/ (DC/)B,/ B,4"^al fine" || %26
w: ri- glio si di- scu\- * * * * * *|* * * pre nel * do- lor.|
"^Recit."[Q:1/4=72] z _E G2 G2 _AB | _D2 GG/_A/ BB BG/B/ | BC z C BB_AG | _AA z A F2 FG/A/ | %30
w: Co- sì Fil- li cru-|del que- sto mio se- no sco- po for-|ma- sti a stra- li tuoi di|fo- co, ma poi co- me ba-|
 _AD z F BFAG | GG z G/_A/ F2 GD/_E/ | CC z C _E>E EG | !courtesy!=E2 EF FF z F/_G/ | %34
w: le- no spa- ri la tua pie-|ta- de e di me gio- co pren-|de- sti ond' io che mi dis-|trug- gio in pian- to son di|
 _G2 G=G G2 z G | =B>d FG _E2 _A^F/G/ | GD z2 !fermata!z4 ||[K:Bb][M:2/4]"^Aria allegro" z4 | z4 | %39
w: tua cru- del- tà, più|che di tua bel- tà mi- se- ro|van- to.|||
 z4 | z4 | z4 | z4 | z4 | z E Bc | _A2 G2 | FB EF | G2 _A2 |[M:2/4] F2 F2 | _A2 G2 | c2 Bc | %51
w: |||||Se quan- to,|bel- la|sei tu fo- sti~à|do- lor|mi- ei|Fil- li,|Fil- li pie-|
 (_AF EF | c2 _AG) | !fermata!F2 z B | FG DE | F2 B,B | FG DE | F2 B,2 | z4 | z2 z B | cF G_A | %61
w: to\- * * *||sa sa-|re- sti~un va- go|fio- re, un|fior ma sen- za|spi- ne||un|fior che spi- ra~o-|
 (BG) EG | _AD EF | (GE) CD | EF GA | =BG cC | (E2 D2) | C2 z C | FC CF | (DC) DF | BA Bc | %71
w: do\- * re fra|l'u- mi- det- te|tri\- * ne, più|gra- to del- la|ro- sa, del- la|ro\- *|sa, sa-|re- sti~un va- go|fio\- * re, un|fior ma sen- za|
 (AG) F2 | z2 z F | GE FD | EF z B | cA BG | AB z B | G3 c | F3 B | E3 c | (DB) (AB) | (D2 C2) | %82
w: spi\- * ne,|un|fior che spi- ra~o-|do- re frà|l'u- mi- det- te|tri- ne, più|gra- to|del- la|ro- sa,|del\- * la *|ro\- *|
 B,2 z B | c2 B2 | z E Bc | _A2 G2 | FB EF | G2 _A2 | F2 F2 | _A2 G2 | c2 _AG | (FG z _A | %92
w: sa, se|quan- to,|se quan- to|bel- la|sei tu fo- sti~à|do- lor|mi- ei|Fil- li,|Fil- li, pie-|to\- * *|
 G_A z B | =AB z B | G_A FG | EF DE | _A2 GA) | _A4 | B2 E_A | (G2 F2) | E4 | _D4 | C3 E | (_A3 B | %104
w: |||||sa,|Fil- li pie-|to\- *|sa,|Fil-|li pie-|to\- *|
 _AG FA | B3 c | BA GB | c2) B2 | (BG) E_A | (G2 F2) | E4 | z4 | z4 | z4 | z4 | z4 | z4 | z4 | %118
w: |||* sa,|Fil\- * li pie-|to\- *|sa.||||||||
 z4 |][K:F][M:4/4]"^Recit." z C/C/ EE/F/ G>c G_A | _AA z c =A>A GF | B2 B2 F2 _AB | %122
w: |Re- sta pu- re nel tuo na- tio co-|stu- me che su- per bet- ta~an-|co- ra tu del mio|
[M:4/4] G2 z G G>G !courtesy!=AB | BF z2 z F/F/ D_E/F/ | G2 z/ G/G/G/ GD z D | D>D D_E F>F _AG | %126
w: cor sa- rai l'a- ma- to|Nu- me; e quell' ho- ra fa-|tal, quell' i- stess' ho- ra, che|d'im- prov- vi- so~a te mi re- se~a-|
 _EE z2 G=E/E/ DC | F2 _AB/c/ cG z2 | !fermata!z8 || %129
w: man- te quan- to tu sei cru-|del me vuol co- stan- te.||
[M:3/8]S"^Aria andante più tosto larghetto"[Q:1/4=54] z3"^," | z3 | z3 | z3 | z3 | z3 | z3 | z3 | %137
w: ||||||||
[M:3/8] (GA)^F | G A2 | B^FG | D3 | (D_E)F | (FG)_A | (_AG)F | _E3 | (_ED)C | _A^FG | (_EF)D | C3 | %149
w: Al * tuo|ci- glio,|che mi fe-|rì|tan\- * te|pia\- * ghe|mo\- * stre-|rò|sin * che|hav- ra pie-|tà * di|me,|
 CD_E | _E3 | (_EF)_G | (_G/F/) G2 | (_GF)_E | D2 D | D_EF | F3 | (FG)_A | (_A/G/) A2 | (_AG)F | %160
w: si mo- stre-|rò|tan\- * te|pia\- * ghe,|tan\- * te,|tan- te|si mo- stre-|rò,|tan\- * te|pia\- * ghe,|tan\- * te,|
[Q:1/4=54][Q:1/4=54] (_E>D)C- | CcG | ^FDC | B, (TB3/2A/4B/4) | A3 | z BG | _E (C/>D/ E/>F/ | %167
w: tan\- * te|* al tuo|ci- glio che|mi fe\- * *|rì|sin che|hav- rà * * *|
 _EcA | ^F D/>!courtesy!=E/ F/>G/ | ^FAD | CD)c | B3/2 (A/G) | (AG)^F | G3 | (B_A)G | (_A/G/) A2 | %176
w: |||* * pie-|tà, pie\- *|tà * di|me,|tan\- * te|pia\- * ghe|
 _AG^F | G3 | GBA | D2 c | B A2 | !fermata!G3!fine! || z3 | z3 | z3 | z3 | z3 | z3 | z3 | z3 | %190
w: ti mo- stre-|rò|sin- che hav-|ra pie-|tà di|me.|||||||||
 (Bc)A | B3 | FG_E | D3 | (EF)G | (GA)B | (dB)G | =E3 | (cA)F | (DB)G | (AB)G | F3 | (BA)D | BAD | %204
w: E * ver-|rà|pre- sto quel|dì|che * sprez-|za\- * to|non * sa-|rò|e * gra-|di\- * ta|la * mia|fè,|e * gra-|di- ta, gra-|
 (_E^C)A | F !courtesy!=E2 |"^al fine" D3 |] %207
w: di\- * ta|la mia|fè.|
V:2
 [B,DG]2 [DGB][D^Fc]/>[DA]/ [DGB][DFA]/>[DGB]/ [DFc][DA]/>F/ | [DG][C^F] z G/>A/ Bc/>d/ _ee | %2
 d>A [^FA][Fd] .[FA_e] z .[DGd] z | .[D^Fc] z .[DGB] z A/F/G/B/ [DGB][CFA] | %4
 [B,DG]2 z [A,D^F] [B,DG]2 [CFA]2 | [DGB][D^FA] [B,FB][B,F] [B,G][_EG] z [CEA] | %6
 [A,D^F]2 [DFA]2 dc =B2 | [_EGc]2 z [E_A_e] [B,FA]2 z [B,FA] | [B,_EG]2 z =E/F/ [B,G]4 | %9
 [_A,C_A][FB_d] cB [CF=A][CFA] [Gc]G/A/ | [B,FB]2 _A2 [B,FA]2 z [B,_EA] | %11
 [_EG]F/>E/ [G,D]2 [G,CE]2 [^F,A,D][G,CG] | [A,D^F]2 .[FAd] z .[FA_e] z .[DGd] z | %13
 .[D^Fc] z .[DGB][DBd]- [Bd] [_Ac]2 [GB]/[F=A]/ | G^F/G/ [DA][Fc_e] [Bd]>[Ac] [DGB][CFA] | %15
 [B,G]B/>A/ B[B,_EG] [A,^C=E]F/>E/ F[B,EG] | [_E^FA][DGd]/[EGc]/ [DGB][CFA] [B,DG]2 .[DGB] z | %17
 .[D_A=B] z .[_EGc] z .[FBd] z .[Gc_e] z | d/c/[DB]/[_Ec]/ [DGB][C^FA] !fermata![B,DG]2 || %19
 [B,DG][C=FA] | [DFB][_EAc]/>[FBd]/ [Fc_e][FAc] [Fd]2 [Fd]2 | _ed cB [CF_A][FAc] [Fd][_Ec] | %22
 [DG=B] c2 [DGB] [_EGc] z [C=EG] z | [CF] z .[B,F_A].[B,DF] .[B,_EG] z .[CGB].[C=EG] | %24
 .[CF=A] z .[FAc] z .[B,FB] z .[C_EA] z | [DFB][A_e]/[Bd]/ [DB][CA] [DFB] z2 x || [B,_EG]8 | %27
 [_DGB]8 | [CGB]8 | [CF_A]8 | [F_Ad]8 | [FGd]8 | [_EG_e]8 | [=EGB]4 [CFc]4 | [C^Fc]4 [DGB]4 | %35
 [DF=B]4 [_EGc]2 [CE_A]2 | [B,G]2 [A,^F]2 !fermata![B,DG]4 ||[K:Bb][M:2/4] z [Ge] [Fd][EGe] | %38
 [E_Ac]2 B2 | _AF GA | B2 c2 | dB fd | [Ge][EB] [Gc]_A | F2 _A2 | [B,G]2 z [CG] | _A2 G2 | %46
 [DF]2 _A2 | [B,G]2 FE |[M:2/4] DEFD | [E_A]2 [DG]2 | G4 | F2 E2 | [_A,CE]4 | %53
 !fermata![F,B,D]2 z2 | [F,B,D]2 z2 | [B,DF]2 z2 | [DFB]2 z2 | [DFB]2 z [Fd] | e_ABc | dG_AB | c4 | %61
 B4 | _A4 | G4 | [EG]2 [EGc]2 | [DG=B]2 [D_Ac]2- | [Ec]2 [D=B]2 | [EGc]2 [EG]2 | F2 c2- | c2 B2 | %70
 [DGB]2 [C=EG]2 | [CFA]2 z [FA] | [DB][_EG][CA][FB] | G2 [DF][FBd] | [EAc][DFB] z [DGB] | %75
 cA[DB][EG] | [CA][DB] [Fd]2- | d2 c2- | c2 B2- | B2 Ac | [DF]3 [DFB] | [DFB]2 [EFA]2 | [DB]FBe | %83
 c2 B2 | z EGc | A2 G2 | [DF]2 _A2 | [B,G]2 FE | DE FD | [E_A]2 [DG]2 | G2 FE | %91
 [B,D][G,E] z [_A,D] | [B,G][CE] z [B,F] | [CE][B,D] z [B,F] | [EG]2 [F_A]2 | [GB]3 [Ge] | %96
 [E_Ae]4 | [F_Ad]4 | [Be]2 [_Ac]2 | [GB]2 [F_A]2 | G_ABG | _AGAB | c3 B | [F_A]3 [GB] | c2 d2 | %105
 e3 f | gfed | cdef | [eg]3 [cf] | [Be]2 [FBd]2 | [GBe]4 | z [Ge][Fd][EGe] | [E_Ac]2 B2 | _AF GA | %114
 B2 c2 | dB fd | [Ge][EB] [Gc]_A | F2 _A2 | [B,EG]2 z2 |][K:F][M:4/4] [CGB]8 | [CF_A]4 [CF=A]4 | %121
 B4 _A4 |[M:4/4] [B,_EG]8 | [B,DF]2 [CEA]2 [B,DB]4 | [DFG]8- | [DFG]8 | [C_EG]4 [=EGc]4 | %127
 [CFc]2 [_Acf]2 [Gc_e]2 [F=Bd]2 | !fermata![_EGc]8 ||[M:3/8] [GB][^Fc][_EA] | [B,DB] [C^F]2 | %131
 G[Ad][GB]- | G^F/E/F | [B,G] _ec | A>cB- | B/A/ A>G | [B,DG]3 |[M:3/8] [B,DG]2 [C^F] | G A2 | %139
 [B,DB][A,C^F][G,B,G] | [F,B,D]3 | [G,D]2 z | D_EF | FG_A | _AGF | [G,C_E]2 z | [_E_A]^FG- | %147
 [G_e]d=B | [_EGc]3 | [_E_Gc]2 z | _E_G=A | [_Gc_e]2 z | [_G_e][_Ec][CA]- | [C_E_G]2 z | FBd | %155
 [_Adf]2 z | [D_A][Fd][=Bf] | [d_a]2 z | [_Af][Fd][D=B]- | [DF_A]2 z | [_EG]2 z | [Gc_e]2 z | %162
 [D^FA]2 z | [DGB]2 [B,DG] | [D^FA]2 [DFd] | [DGB]2 z | [_EG]2 z | [_EAc]2 z | [D^FA]2 z | %169
 [^FAd]2 z | [D^FA]2 z | [GB][^Fc][Gd] | [_EAc][GB][^FA] | [DGB]GB | [GB_d]3 | [_Ac][_A,F][CA] | %176
 _c3 | [GB][B,G][GB] | [G=e]3 | [^FA]2 [CGc] | [GB] [^FA]2 | !fermata![B,DG]3 || [GB][^Fc][_EA] | %183
 [B,DB] [C^F]2 | G[Ad][GB]- | G^F/E/F | [B,G]_ec | AcB- | B/A/ A>G | [B,DG]3 | [B,D]2 [C_E] | %191
 F_ED | [F,C_E]3 | D_E[F,B,F] | [G,C=E]2 z | [G,DG]2 z | [DGB]2 z | [C=EG]3 | [CFc]2 z | [GB]3 | %200
 [FA][DB][EG] | [A,F]Ac | [^CEB] [DFA]2 | [EB^c] [FAd]2 | B A2- | A/B/ AG | ^F[EG][FA] |] %207
V:3
 x8 | x3 D2 G2 G | A/G/^F x2 x4 | x4 _ED x2 | x8 | x8 | x4 [=FG]3 _E/D/ | x8 | x4 C2 _DC | %9
 x2 [=EG]2 x2 CC | x2 _ED/>C/ x4 | B,2 x6 | x8 | x4 _E3 x | _E2 x2 GE x2 | x _E2 x x =C2 x | x8 | %17
 x8 | [D=A]G x2 x2 || x2 | x4 B>A _AG | [_EG]2 [EG]2 x2 =A2 | z C/D/ _E x x4 | x8 | x8 | %25
 x F F2 x4 || x8 | x8 | x8 | x8 | x8 | x8 | x8 | x8 | x8 | x8 | D4 x4 ||[K:Bb][M:2/4] x B2 x | %38
 x2 E2- | ED E2- | E2 E2 | _A B2 A | x3 E- | EC DF | x4 | EF B,C | x2 EF | x2 C2 |[M:2/4] B,4 | %49
 x4 | C4- | C4 | x4 | x4 | x4 | x4 | x4 | x4 | E4 | D4 | C2 D2- | D2 E2- | E2 D2- | D=B,CD | x4 | %65
 x4 | G4 | x4 | [CF]4 | [DF]4 | x4 | x4 | x4 | B,C x2 | x4 | [CF]2 x2 | x4 | G3 E | F3 D | E3 C | %80
 x4 | x4 | x D2 G | ED E2 | x B,2 E | CD EB, | x2 EF | z G, C2- | C2 B,2 | x4 | C4 | x4 | x4 | x4 | %94
 B,4 | E4 | x4 | x4 | E4- | E2 D2 | E4 | _D4 | CF E2 | C4 | F4 | [EB]3 [_Ac] | [GB]2 G2 | _A2 B2 | %108
 B=B c_A | G2 x2 | x4 | x B2 x | x2 E2- | ED E2- | E2 E2 | _A B2 A | x3 E- | EC DF | x4 |] %119
[K:F][M:4/4] x8 | x8 | [B,F]8 |[M:4/4] x8 | x8 | x8 | x8 | x8 | x8 | x8 ||[M:3/8] D2 C | x _ED | %131
 D D2 | [CA]3 | x [_EG]2 | D^F[DG]- | [_EG][DG][C^F] | x3 |[M:3/8] x3 | D2 [C_E] | x3 | x3 | x3 | %142
 G,2 z | D2 z | _E2 D | x3 | x D2 | _E[F_A][DG] | x3 | x3 | C2 _E | x3 | x3 | x3 | D F2 | x3 | x3 | %157
 x3 | x3 | x3 | x3 | x3 | x3 | x3 | x3 | x3 | x3 | x3 | x3 | x3 | x3 | D3 | x D2 | x D2 | x3 | x3 | %176
 _AG^F | x3 | B2 A | x3 | _ECD | x3 || D2 C | x _ED | D D2 | [DA]3 | x [_EG]2 | D^F[DG]- | %188
 [_EG][DG][C^F] | x3 | x3 | B,3 | x3 | [F,B,]2 x | x3 | x3 | x3 | x3 | x3 | D2 E | x3 | x [CF]2 | %202
 x3 | x3 | [_EG][^C=E][DF]- | [DF] [^CE]2 | D3 |] %207
V:4
 G,,2 G,A,/>^F,/ G,D,/>G,/ A,F,/>D,/ | B, A,zB,/>^F,/ G,_E,/>D,/ C,C/>A,/ | %2
w: |6 6 * * * * * * * *|
 ^F,/E,/D, z D/>D,/ CC/>D,/ B,B,/>D,/ | A,A,/>D,/ G,G,/>D,/ C/A,/B,/G,/ DD, | G,2 z D, B,,2 A,,2 | %5
w: |||
 G,,D,/>C,/ D,D,, _E,C, z C, | D,2 z D,/C,/ =B,,A,, G,,2 | C,2 z C, D,2 z D, | _E,2 z G,/F,/ =E,4 | %9
w: ||||
 F,B, CC, F,F,/>C,/ _E,E,/>F,,/ | D,2 C,F,/>_E,/ D,2 z D, | _E,D,/>C,/ =B,,2 C,2 D,E, | %12
w: |||
 D,2 z D/>D,/ CC/>D,/ B,B,/>D,/ | A,A,/>D,/ G,G,/>D,/ C3 D | _E/C/A,/G,/ ^F,A,, B,,C, D,D,, | %15
w: |||
 G,,G,/>=F,/ G,G,, A,,A,/>G,/ A,^C, | !courtesy!=C,B,,/>C,/ D,D,, G,,2 z G,/>G,,/ | %17
w: ||
 F,F,/>G,,/ _E,E,/>G,,/ D,D,/>G,,/ C,C,/>G,,/ | ^F,/D,/G,/C,/ D,D,, !fermata!G,,2 || G,=F,/>_E,/ | %20
w: 4 * * * * * 6 * * * * *|||
 D,C,/>B,,/ A,,F,, B,,2 =B,,2 | C,/C,/_E,/G,/ CC, F,F,, F,2 | G,_A, G,G,, C,C/>C,/ B,B,/>C,/ | %23
w: ||* * * * * * * 4 * *|
 _A,A,/>C,/ D,B,, _E,E,/>_E,,/ =E,C, | F,F,/>F,,/ _E,E,/>F,,/ D,D,/>F,,/ C,C,/>F,,/ | %25
w: |* * * 4 * * * * * * * *|
 B,,/D,/C,/B,,/ F,F,, B,,2 B,D/>B,/ || _E,8 | !courtesy!=E,8- | E,8 | F,8 | B,,8 | =B,,8 | C,8 | %33
w: ||||||||
 _D,4 _A,,4 | !courtesy!=A,,4 G,,4 | D,4 C,4 | D,4 !fermata!G,,4 ||[K:Bb][M:2/4] z E, B,C | %38
w: ||6 *|||
 _A,2 G,2 | F,B, E,F, | G,2 _A,2 | F,B, D,F, | E,G, E,C, | _A,,2 B,,2 | E,2 z E, | C,D, E,2 | %46
w: ||||||||
 B,,2 C,D, | E,2 _A,,2 |[M:2/4] B,,C,D,B,, | C,2 B,,2 | _A,,4- | A,,4 | _A,,4 | !fermata!B,,2 z2 | %54
w: ||||||||
 B,,2 z2 | B,,2 z2 | B,,2 z2 | B,,2 z B, | CF,G,_A, | B,E,F,G, | _A,4 | G,4 | F,4 | E,2 z =B,, | %64
w: ||||||||||
 C,D,E,F, | G,2 F,2 | G,2 G,,2 | C,C,,C,B,, | A,,4 | B,,4 | G,2 C,2 | F,2 z F, | G,E,F,D, | %73
w: |||||||||
 E,2 B,,2 | C,D, z G, | A,F,G,E, | F,B,, z B,, | E,D,E,C, | D,C,D,B,, | C,B,,C,A,, | B,,D,C,B,, | %81
w: ||||||||
 F,2 F,,2 | B,,B,G,E, | _A,2 G,2 | z G,E,C, | F,2 E,2 | B,,2 C,D, | E,2 _A,,2 | B,,C,D,B,, | %89
w: ||||||||
 C,2 B,,2 | _A,,4 | B,,E, z F, | E,C, z D, | F,B,, z D, | E,4- | E,4 | C,4 | B,,4 | G,,2 _A,,2 | %99
w: ||||||||||
 B,,4 | E,F,G,E, | F,E,F,G, | _A,_A,,A,G, | F,F,, F,2- | F,2 B,_A, | G,G,, G,2- | G,2 CB, | %107
w: ||||||||
 _A,2 G,2 | G,2 _A,2 | B,2 B,,2 | E,4 | z E, B,C | _A,2 G,2 | F,B, E,F, | G,2 _A,2 | F,B, D,F, | %116
w: |||||||||
 E,G, E,C, | _A,,2 B,,2 | E,,2 z2 |][K:F][M:4/4] !courtesy!=E,8 | F,4 _E,4 | D,8 |[M:4/4] _E,8 | %123
w: |||||||
 F,4 B,,4 | =B,,8- | B,,8 | C,4 !courtesy!_B,,4 |"^o" _A,,2 F,,2 G,,4 | !fermata!C,8 || %129
w: |||* 4|||
[M:3/8] G,A,^F, | G, A,2 | B, ^F, G, | D,3 | _E,C,A,, | ^F,D,G, | C, D,2 | G,,3 |[M:3/8] G,2 A, | %138
w: |||||||||
 B, ^F,2 | G,D,_E, | B,,3 | =B,,2 z | =B,,2 z | =B,,2 z | C,2 z | C,2 z | C,D,=B,, | C,F,G, | %148
w: ||||||||||
 C,CB, | !courtesy!=A,2 z | !courtesy!=A,_E,C, | !courtesy!=A,,2 z | A,,C,_E, | A,2 z | B,DC | %155
w: |||||||
 =B,2 z | =B,F,D, | =B,,2 z | =B,,D,F, | =B,2 z | C2 z | C,2 z | D,2 z | G,G,,G, | D,D,B,, | %165
w: ||||||||||
 G,,2 z | C,2 z | C,2 z | D,2 z | D,2 z | D,2 z | G,,A,,B,, | C, D,2 | G,B,G, | !courtesy!=E,3 | %175
w: ||||||||||
 F,F,_E, | =D,3 | _E,E,D, | ^C,3 | D,2 _E, | C, D,2 | !fermata!G,,3 || G,A,^F, | G, A,2 | B,^F,G, | %185
w: ||||||||||
 D,3 | _E,C,A,, | ^F,D,G, | C, D,2 | G,,3 | G,2 C, | D,C,B,, | A,,3 | B,,C,D, | C,2 z | B,,2 z | %196
w: ||||||||||6|
 B,,2 z | C,CB, | A,2 z | B,2 C | F,B,,C, | F,,F,A, | G, F,2 | G, F,2 | G,2 F, | G,A,A,, | D,3 |] %207
w: |||||||||||

